static/card-icons/alert.svg

<svg viewBox="0 0 512 512" xmlns="http://www.w3.org/2000/svg"><path d="m505.403 406.394-210.014-348.292c-8.274-13.721-23.367-22.245-39.39-22.245s-31.116 8.524-39.391 22.246l-210.013 348.291c-8.551 14.182-8.804 31.95-.661 46.37 8.145 14.42 23.491 23.378 40.051 23.378h420.028c16.56 0 31.907-8.958 40.052-23.379 8.143-14.421 7.89-32.189-.662-46.369zm-28.364 29.978c-2.242 3.969-6.467 6.436-11.026 6.436h-420.028c-4.559 0-8.784-2.466-11.025-6.435-2.242-3.97-2.172-8.862.181-12.765l210.015-348.292c2.278-3.777 6.433-6.124 10.844-6.124 4.41 0 8.565 2.347 10.843 6.124l210.013 348.292c2.355 3.904 2.425 8.795.183 12.764z"/><path d="m256.154 173.005c-12.68 0-22.576 6.804-22.576 18.866 0 36.802 4.329 89.686 4.329 126.489.001 9.587 8.352 13.607 18.248 13.607 7.422 0 17.937-4.02 17.937-13.607 0-36.802 4.329-89.686 4.329-126.489-0-12.061-10.205-18.866-22.267-18.866z"/><path d="m256.465 353.306c-13.607 0-23.814 10.824-23.814 23.814 0 12.68 10.206 23.814 23.814 23.814 12.68 0 23.505-11.134 23.505-23.814 0-12.99-10.826-23.814-23.505-23.814z"/></svg>

<?xml version="1.0" encoding="iso-8859-1"?>
<!-- Generator: Adobe Illustrator 19.0.0, SVG Export Plug-In . SVG Version: 6.00 Build 0)  -->
<svg version="1.1" id="Layer_1" xmlns="http://www.w3.org/2000/svg" xmlns:xlink="http://www.w3.org/1999/xlink" x="0px" y="0px"
	 viewBox="0 0 512 512" style="enableBackground:new 0 0 512 512;" xml:space="preserve">
<g>
	<g>
		<path d="M505.403,406.394L295.389,58.102c-8.274-13.721-23.367-22.245-39.39-22.245c-16.023,0-31.116,8.524-39.391,22.246
			L6.595,406.394c-8.551,14.182-8.804,31.95-0.661,46.37c8.145,14.42,23.491,23.378,40.051,23.378h420.028
			c16.56,0,31.907-8.958,40.052-23.379C514.208,438.342,513.955,420.574,505.403,406.394z M477.039,436.372
			c-2.242,3.969-6.467,6.436-11.026,6.436H45.985c-4.559,0-8.784-2.466-11.025-6.435c-2.242-3.97-2.172-8.862,0.181-12.765
			L245.156,75.316c2.278-3.777,6.433-6.124,10.844-6.124c4.41,0,8.565,2.347,10.843,6.124l210.013,348.292
			C479.211,427.512,479.281,432.403,477.039,436.372z"/>
	</g>
</g>
<g>
	<g>
		<path d="M256.154,173.005c-12.68,0-22.576,6.804-22.576,18.866c0,36.802,4.329,89.686,4.329,126.489
			c0.001,9.587,8.352,13.607,18.248,13.607c7.422,0,17.937-4.02,17.937-13.607c0-36.802,4.329-89.686,4.329-126.489
			C278.421,179.81,268.216,173.005,256.154,173.005z"/>
	</g>
</g>
<g>
	<g>
		<path d="M256.465,353.306c-13.607,0-23.814,10.824-23.814,23.814c0,12.68,10.206,23.814,23.814,23.814
			c12.68,0,23.505-11.134,23.505-23.814C279.97,364.13,269.144,353.306,256.465,353.306z"/>
	</g>
</g>
<g>
</g>
<g>
</g>
<g>
</g>
<g>
</g>
<g>
</g>
<g>
</g>
<g>
</g>
<g>
</g>
<g>
</g>
<g>
</g>
<g>
</g>
<g>
</g>
<g>
</g>
<g>
</g>
<g>
</g>
</svg>
